src/assets/flags/tn.svg

<?xml version="1.0" encoding="UTF-8"?>
<svg xmlns="http://www.w3.org/2000/svg" xmlns:xlink="http://www.w3.org/1999/xlink" width="25px" height="px" viewBox="0 0 25 19" version="1.1">
<g id="surface1">
<rect x="0" y="0" width="25" height="19" style="fill:rgb(90.588236%,0%,7.450981%);fill-opacity:1;stroke:none;"/>
<path style=" stroke:none;fill-rule:nonzero;fill:rgb(100%,100%,100%);fill-opacity:1;" d="M 12.5 4.71875 C 9.90625 4.707031 7.796875 6.828125 7.789062 9.453125 C 7.777344 12.082031 9.867188 14.21875 12.460938 14.230469 C 15.054688 14.242188 17.164062 12.121094 17.171875 9.492188 C 17.183594 6.867188 15.09375 4.730469 12.5 4.71875 M 15.3125 11.597656 C 14.410156 12.835938 12.828125 13.34375 11.386719 12.863281 C 9.945312 12.382812 8.96875 11.019531 8.96875 9.480469 C 8.96875 7.941406 9.945312 6.578125 11.386719 6.097656 C 12.828125 5.617188 14.410156 6.125 15.3125 7.363281 C 14.1875 6.335938 12.460938 6.394531 11.40625 7.5 C 10.355469 8.605469 10.355469 10.355469 11.40625 11.460938 C 12.460938 12.566406 14.1875 12.625 15.3125 11.597656 M 15.128906 10.738281 L 13.667969 10.261719 L 12.765625 11.519531 L 12.765625 9.964844 L 11.304688 9.480469 L 12.765625 8.996094 L 12.765625 7.441406 L 13.667969 8.699219 L 15.128906 8.222656 L 14.226562 9.480469 Z M 15.128906 10.738281 "/>
</g>
</svg>

<svg xmlns="http://www.w3.org/2000/svg" width="25" height="px" viewBox="0 0 25 19"><path d="M0 0h25v19H0z" style="fill:#e70013;fill-opacity:1;stroke:none"/><path d="M12.5 4.719c-2.594-.012-4.703 2.11-4.71 4.734-.013 2.629 2.077 4.766 4.67 4.777 2.595.012 4.704-2.109 4.712-4.738.012-2.625-2.078-4.762-4.672-4.773m2.813 6.879a3.49 3.49 0 0 1-3.926 1.265A3.56 3.56 0 0 1 8.969 9.48c0-1.539.976-2.902 2.418-3.382a3.49 3.49 0 0 1 3.925 1.265 2.787 2.787 0 0 0-3.906.137 2.883 2.883 0 0 0 0 3.96 2.787 2.787 0 0 0 3.906.138m-.183-.86-1.461-.476-.902 1.258V9.965l-1.461-.485 1.46-.484V7.441l.903 1.258 1.46-.476-.901 1.257Zm0 0" style="stroke:none;fill-rule:nonzero;fill:#fff;fill-opacity:1"/></svg>
